X: 24976
T: Maid Of Mount Kisco, The
R: reel
M: 4/4
K: Gmajor
AG|E A ~A2 B A~A2|E A~A2{c}BG{B}AG|E G~G2A G~G2|E G~G2EGED|
E A~A2{c}B A~A2|E A~A2{c}BA{c}B/c/d|edef g/a/g fe|dBGA B A:|
dB|A~A2B dBAB|~G2BG dGBG|A~A2BdBAB|egfa {a}gedB|
A ~A2B dBAB|~G2 BG dGBG|A~A2B dBAB|gedB{B}A2|
Bd|e a~a2bgag|e/f/e dB {A}GABd|f a~a2bgag|e/f/e de g2eg|
a ~a2f g~g2e|dedB GABd|e A~A2 efge|dBGB A2:|

